img/wi-fi-icon.svg

<svg width="24" height="24" viewBox="0 0 24 24" fill="none" xmlns="http://www.w3.org/2000/svg">
<circle cx="12" cy="12" r="12" fill="#007AE9"/>
<g clip-path="url(#clip0)">
<path d="M12.0328 17.2679C12.9361 17.2679 13.6683 16.5357 13.6683 15.6324C13.6683 14.7291 12.9361 13.9968 12.0328 13.9968C11.1295 13.9968 10.3972 14.7291 10.3972 15.6324C10.3972 16.5357 11.1295 17.2679 12.0328 17.2679Z" fill="white"/>
<path d="M15.9419 11.692C15.9176 11.667 15.892 11.6448 15.867 11.6219L15.7936 11.5524C15.7814 11.5396 15.7679 11.5302 15.7524 11.518C13.6375 9.59663 10.4008 9.67282 8.38231 11.6913L8.14567 11.9286L7.81802 12.2563C7.4189 12.6554 7.42093 13.306 7.82071 13.7058C8.22118 14.1069 8.87176 14.1076 9.2702 13.7085L9.83516 13.1435C11.1188 11.8605 13.2067 11.8605 14.4897 13.1428L14.8976 13.5379C15.2926 13.933 15.9372 13.9323 16.3342 13.5345C16.5264 13.343 16.6322 13.0875 16.6329 12.8158C16.6336 12.5455 16.5291 12.29 16.3369 12.0992L15.9419 11.692Z" fill="white"/>
<path d="M18.7282 9.67003L18.3884 9.33025C18.387 9.3289 18.3863 9.32688 18.3836 9.3262L18.1153 9.05653C18.0681 9.01001 18.0169 8.96956 17.963 8.9345C14.5159 5.90812 9.27279 6.00115 5.93561 9.21159C5.91942 9.22642 5.90122 9.23654 5.88504 9.25272L5.27154 9.86689C4.90748 10.2303 4.9095 10.8215 5.27558 11.1876C5.64099 11.553 6.23224 11.5557 6.5963 11.191L7.2098 10.5782C7.21385 10.5728 7.21722 10.568 7.22126 10.5647C9.92 7.95762 14.201 7.94144 16.9214 10.5114L17.4041 10.9948C17.7674 11.3582 18.36 11.3568 18.7255 10.9914C19.0902 10.6253 19.0915 10.0334 18.7282 9.67003Z" fill="white"/>
</g>
<defs>
<clipPath id="clip0">
<rect x="5" y="5" width="14" height="14" fill="white"/>
</clipPath>
</defs>
</svg>

<svg xmlns="http://www.w3.org/2000/svg" width="24" height="24" fill="none"><circle cx="12" cy="12" r="12" fill="#007AE9"/><g fill="#fff" clip-path="url(#clip0)"><path d="M12.033 17.268a1.635 1.635 0 100-3.271 1.635 1.635 0 000 3.27z"/><path d="M15.942 11.692c-.024-.025-.05-.047-.075-.07l-.073-.07c-.013-.012-.026-.022-.042-.034a5.336 5.336 0 00-7.37.173l-.236.238-.328.327A1.026 1.026 0 009.27 13.71l.565-.566a3.296 3.296 0 014.655 0l.408.395a1.016 1.016 0 001.735-.722 1 1 0 00-.296-.717l-.395-.407z"/><path d="M18.728 9.67l-.34-.34-.004-.004-.269-.27a.97.97 0 00-.152-.121C14.516 5.907 9.273 6 5.936 9.211c-.017.014-.035.025-.051.04l-.613.615a.933.933 0 00.004 1.32.933.933 0 001.32.004l.614-.613c.004-.005.007-.01.011-.013a7.03 7.03 0 019.7-.054l.483.484a.936.936 0 001.324-1.325z"/></g><defs><clipPath id="clip0"><path fill="#fff" d="M5 5h14v14H5z"/></clipPath></defs></svg>
